X:1
T:151 - Comunhão
T:Letra: Ellen Lakshmi Goreh (1853 - ?)
T:Trad.: Myron Augusto Clark (1866-1920)
T:Música: George Coles Stebbins (1846-1945)
M:2/4
L:1/8
Q:1/4=70
K:G
V:1
D/D/ | "G"DB BB | "C"BA EG | "D7"GF ED | "G"D2z D/D/ | "D7"DF FA | "G"AG GB | "A7"BA EA | "D"A2z D/D/ | "D7"Dc cc | "G"cB BB | "B"BF "Em"GA | "B"B2z B/B/ | "G"Bd "G7"dd | "C"dc GA | "Gm"_BB "Bb7"BB | "Eb"H_B2 =AG | "G/D"D3/D/ "D7"DD | "G"D2z |]
w: 1.~Quão pre-cio-sas são as ho-ras Na pre-sen-ça de Je-sus, Co-mu-nhão mui de-li-cio-sa De mi-nhaal-ma com a luz! Os cui-da-dos des-te mun-do Não me po-de-rão mo-ver, Pois é E-le meu a-bri-go Quan-doo ten-ta-dor vi-er Quan-doo ten-ta-dor vi-er
w: 2.~Ao sen-tir-me ro-de-a-do De cui-da-dos ter-re-ais, Ir-ri-ta-do,en-fra-que-ci-do, Em he-si-ta-ções fa-tais, A Je-sus eu me di-ri-jo, Nes-ses tem-pos dea-fli-ção; As pa-la-vras queE-le fa-la Tra-zem-me con-so-la-ção. Tra-zem-me con-so-la-ção.
w: 3.~Se con-fes-so meus te-mo-res, to-daa mi-nhaim-per-fei-ção, E-lees-cu-ta com pa-ciên-cia Es-sa tris-te con-fis-são; Com ter-nu-ra re-pre-en-de O pe-ca-doe to-doo mal; E-leé sem-pre meu a-mi-go, O me-lhor e mais le-al. O me-lhor e mais le-al.
w: 4.~Se que-reis sa-ber quão do-ce É com Deus ter co-mu-nhão, Po-de-reis, en-tão, pro-vá-lo, E te-reis com-pen-sa-ção. Pro-cu-rai es-tar so-zi-nhos Em con-ver-sa com Je-sus, E te-reis, na vos-sa vi-da, Paz per-fei-ta, gra-çae luz. Paz per-fei-ta, gra-çae luz.
W: 
W: 
W: 
W: 1. Quão preciosas são as horas
W: Na presença de Jesus,
W: Comunhão mui deliciosa
W: De minha alma com a luz!
W: Os cuidados deste mundo
W: Não me poderão mover,
W: Pois é Ele meu abrigo
W: Quando o tentador vier
W: Quando o tentador vier
W: 
W: 2. Ao sentir-me rodeado
W: De cuidados terreais,
W: Irritado, enfraquecido,
W: Em hesitações fatais,
W: A Jesus eu me dirijo,
W: Nesses tempos de aflição;
W: As palavras que Ele fala
W: Trazem-me consolação.
W: Trazem-me consolação.
W: 
W: 
W: 
W: 
W: 3. Se confesso meus temores,
W: toda a minha imperfeição,
W: Ele escuta com paciência
W: Essa triste confissão;
W: Com ternura repreende
W: O pecado e todo o mal;
W: Ele é sempre meu amigo,
W: O melhor e mais leal.
W: O melhor e mais leal.
W: 
W: 4. Se quereis saber quão doce
W: É com Deus ter comunhão,
W: Podereis, então, prová-lo,
W: E tereis compensação.
W: Procurai estar sozinhos
W: Em conversa com Jesus,
W: E tereis, na vossa vida,
W: Paz perfeita, graça e luz.
W: Paz perfeita, graça e luz.
W:         
W: 





